!!!COM: Palestrina, Giovanni Perluigi da
!!!OPR: De Beata Marie Virginis (I)
!!!OTL: Agnus
**kern	**kern	**kern	**kern	**kern
*Ibass	*Itenor	*Itenor	*Icalto	*Icant
!Bassus	!Tenor 2	!Tenor 1	!Altus	!Cantus
*clefF4	*clefGv2	*clefGv2	*clefG2	*clefG2
*k[]	*k[]	*k[]	*k[]	*k[]
*G:mix	*G:mix	*G:mix	*G:mix	*G:mix
*M4/2	*M4/2	*M4/2	*M4/2	*M4/2
=1	=1	=1	=1	=1
0r	0r	1G	0r	0r
.	.	[1d	.	.
=2	=2	=2	=2	=2
1r	0r	2d]	0r	0r
.	.	2B	.	.
1C	.	1c	.	.
=3	=3	=3	=3	=3
1.G	0r	2.B	0r	0r
.	.	4c	.	.
.	.	2d	.	.
2E	.	2e	.	.
=4	=4	=4	=4	=4
1F	0r	2A	1c	0r
.	.	1c	.	.
2.E	.	.	[1g	.
.	.	4B	.	.
4F	.	4A	.	.
=5	=5	=5	=5	=5
2G	0r	2B	2g]	0r
2A	.	2c	2e	.
4D	.	2d	1f	.
4E	.	.	.	.
4F	.	4A	.	.
4G	.	4B	.	.
=6	=6	=6	=6	=6
4A	0r	4c	2.e	0r
4B	.	4d	.	.
2.c	.	2.e	.	.
.	.	.	4f#	.
.	.	.	2g	.
4B	.	4d	.	.
2A	.	2c	2a	.
=7	=7	=7	=7	=7
2G	0r	2B	2d	1g
2C	.	2c	1g	.
1D	.	1A	.	[1dd
.	.	.	2f#	.
=8	=8	=8	=8	=8
2.G	1r	2B	1g	2dd]
.	.	1e	.	2b
4E	.	.	.	.
1A	1c	.	1r	1cc
.	.	4d	.	.
.	.	4c	.	.
=9	=9	=9	=9	=9
2.G	1.g	4d	2r	1.b
.	.	4c	.	.
.	.	4B	2d	.
4F	.	4A	.	.
1E	.	1G	1e	.
.	2e	.	.	2cc
=10	=10	=10	=10	=10
1D	1f	2r	1a	1dd
.	.	1d	.	.
1A	[1e	.	[1a	1ee
.	.	4c#	.	.
.	.	4B	.	.
=11	=11	=11	=11	=11
0r	2e]	2c#	1a]	2ee
.	2f	2d	.	4dd
.	.	.	.	4cc
.	2.g	1G	2g	4b
.	.	.	.	4cc
.	.	.	2b	[2dd
.	4f	.	.	.
=12	=12	=12	=12	=12
2r	1e	1A	1a	2dd]
2A	.	.	.	2cc#
1B	2d	1r	[1g	1dd
.	2d	.	.	.
=13	=13	=13	=13	=13
1c	1e	0r	1g]	2.cc
.	.	.	.	4b
1d	1f#	.	1r	2a
.	.	.	.	2a
=14	=14	=14	=14	=14
0r	2g	2r	1r	1b
.	2G	2d	.	.
.	2c	1e	1g	1cc
.	2e	.	.	.
=15	=15	=15	=15	=15
1r	1d	1f#	1a	1dd
1G	1d	[1g	1b	2r
.	.	.	.	2dd
=16	=16	=16	=16	=16
2.c	0r	2g]	1.cc	1ee
.	.	2g	.	.
4B	.	.	.	.
1A	.	2c	.	1ff#
.	.	2c	2cc	.
=17	=17	=17	=17	=17
1G	1r	1.d	2b-	2gg
.	.	.	2g	2gg
1d	2r	.	1b-	2ff
.	2g	2G	.	2dd
=18	=18	=18	=18	=18
1D	2f	2d	0a	2.ff
.	2d	2r	.	.
.	.	.	.	4ee
1r	2.f	1a	.	2dd
.	.	.	.	2cc#
.	4e	.	.	.
=19	=19	=19	=19	=19
0r	2d	2f	2r	2dd
.	2c	2.g	2cc	2.ee
.	1d	.	2b	.
.	.	8f#	.	4dd
.	.	8e	.	.
.	.	2f#	2a	[2dd
=20	=20	=20	=20	=20
1r	0e	1g	2g	2dd]
.	.	.	2e	4cc#
.	.	.	.	4b
1A	.	1a	1r	1cc#
=21	=21	=21	=21	=21
1B	1d	2r	2r	2dd
.	.	2d	1g	2gg
1c	1r	1e	.	1ee
.	.	.	[2a	.
=22	=22	=22	=22	=22
1d	0r	2f	4a]	2dd
.	.	.	8g	.
.	.	.	8a	.
.	.	2.g	2b	2dd
2r	.	.	2.a	2cc
.	.	8f#	.	.
.	.	8e	.	.
2d	.	2f#	.	2a
.	.	.	8g	.
.	.	.	8f	.
=23	=23	=23	=23	=23
2c	2r	2g	1e	2.cc
2A	2.a	2c	.	.
.	.	.	.	4b
2.c	.	1r	1e	2a
.	8g	.	.	.
.	8f	.	.	.
.	2e	.	.	2g
4B	.	.	.	.
=24	=24	=24	=24	=24
2A	2f	2r	2c	2a
2G	2g	2g	2.d	2b
1d	4a	2f	.	2a
.	4g	.	4e	.
.	4f	2d	4f	[2dd
.	4e	.	4g	.
=25	=25	=25	=25	=25
2r	2.d	2.f	0a	2dd]
2D	.	.	.	1ff
.	4e	4e	.	.
2D	4f	2d	.	.
.	4d	.	.	.
2A	2e	2c#	.	[2ee
=26	=26	=26	=26	=26
1D	2.f	1d	[0a	4ee]
.	.	.	.	4dd
.	.	.	.	1dd
.	4g	.	.	.
2A	2a	1e	.	.
2A	2e	.	.	2cc#
=27	=27	=27	=27	=27
2D	4f	1d	1a]	0dd
.	4e	.	.	.
2F	4d	.	.	.
.	4c	.	.	.
1G	1B	2r	1d	.
.	.	[2g	.	.
=28	=28	=28	=28	=28
1D	1d	2g]	2r	1dd
.	.	1f	1a	.
1r	1r	.	.	1cc
.	.	[2e	[2g	.
=29	=29	=29	=29	=29
0r	0r	2e]	2g]	1b
.	.	4d	4f	.
.	.	4c	4e	.
.	.	2B	2d	1g
.	.	2c	[2e	.
=30	=30	=30	=30	=30
0r	1g	2.G	2e]	1b
.	.	.	2d	.
.	.	4B	.	.
.	2f	[1A	2.c	[1cc
.	[2e	.	.	.
.	.	.	4d	.
=31	=31	=31	=31	=31
0r	2e]	1A]	2e	1cc]
.	4d	.	2f#	.
.	4c	.	.	.
.	2d	2G	1g	1b
.	2e	[2g	.	.
=32	=32	=32	=32	=32
2r	2c	2g]	0r	1a
1d	2d	1f	.	.
.	2B	.	.	[1g
[2c	2c	[2e	.	.
=33	=33	=33	=33	=33
4c]	1G	2e]	2r	1g]
4B	.	.	.	.
2B	.	2d	1d	.
1A	1r	1e	.	[1a
.	.	.	2c#	.
=34	=34	=34	=34	=34
1D	1r	1f#	1.d	1a]
1G	2r	1g	.	1b
.	[2g	.	2B	.
=35	=35	=35	=35	=35
4D	2g]	0r	1d	0a
4E	.	.	.	.
4F	2f	.	.	.
4G	.	.	.	.
4A	2.e	.	1c	.
4B	.	.	.	.
[2c	.	.	.	.
.	4c	.	.	.
=36	=36	=36	=36	=36
2c]	1d	0r	2r	1g
2B	.	.	1g	.
1c	1e	.	.	2r
.	.	.	2g	[2gg
=37	=37	=37	=37	=37
0r	1r	1d	2.a	2gg]
.	.	.	.	2ff
.	.	.	4b	.
.	[1g	1c	2cc	1ee
.	.	.	2c	.
=38	=38	=38	=38	=38
1.G	2g]	1B	1d	1dd
.	2f	.	.	.
.	2e	1G	1B	[1gg
2F	2d	.	.	.
=39	=39	=39	=39	=39
2E	1.e	1B	1.g	2gg]
2D	.	.	.	2ff
[1C	.	[1c	.	2ee
.	2f	.	2f	2dd
=40	=40	=40	=40	=40
1C]	0g	1c]	1e	1cc
1G	.	1B	1d	2r
.	.	.	.	[2dd
=41	=41	=41	=41	=41
1r	1c	1A	2e	2dd]
.	.	.	2f#	1cc
2r	[1d	1G	1g	.
[2G	.	.	.	[2b
=42	=42	=42	=42	=42
2G]	1d]	1A	2r	2b]
2F	.	.	2d	2.a
2E	1G	1B	2e	.
.	.	.	.	4g
2G	.	.	[2d	[2g
=43	=43	=43	=43	=43
0D	2A	0A	2d]	2g]
.	2.d	.	2A	4f#
.	.	.	.	4e
.	.	.	1d	1f#
.	4c	.	.	.
.	2A	.	.	.
=44	=44	=44	=44	=44
[0G	[0B	[0G	[0d	[0g
=45	=45	=45	=45	=45
0G]	0B]	0G]	0d]	0g]
==	==	==	==	==
*-	*-	*-	*-	*-
!!!CDT: 1525/^1526/-1594/2/2
!!!OCY: Italia
!!!AGN: Mass (Paraphrase)
!!!AST: renaissance, vocal
!!!ASW: Gregorian Mass
!!!PWK: Masses, Book Mantuan I
!!!RNB: Cadence finals: D
!!!YOR: Le Opere Complete, v. 18, p. 83
!!!YOO: Rome, Italy: Fratelli Scalera
!!!END: 1992//
!!!EED: John Miller
!!!YEC: Copyright 2000, John Miller
!!!YEN: United States of America
!!!YEM: Rights to all derivative electronic formats reserved.
!!!YEM: Refer to licensing agreement for further details.
!!!YEM: This file must be accompanied by the licensing agreement.
!!!YEM: A copy of the licensing agreement may be found at http://www.music-cog.ohio-state.edu/HumdrumDatabases/Palestrina/license.txt
!!!EMD: converted to Humdrum by Bret Aarden
